X:1
T:Title
%%score ( 1 2 ) 3
L:1/8
Q:1/4=81
M:6/8
K:Bb
V:1 treble nm="Bright Piano"
V:2 treble 
V:3 bass nm="Bright Piano"
V:1
 [DF]>[DF][DF] [EF][EG][EA] | [DB]>[Ec][DB] [DB] [DF]2 | [EG]>[EG][EG] [Ec][EB][EG] | z3 A3 | %4
w: Jown~R.~Sweney * * * * *||||
 [DB]>[Ec][Fd] [Fd][Ge][Fd] | [Fc][FB][Fc] [Fd] [FB]2 | [Gc]>[GB][EG] [EG]<[DF][B,D] | %7
w: |||
 [CF][CG][EA] [DB]3 | [Fd]>[=E_d][F=d] [DB]3 | [EB]>[EA][EB] [EG]3 | F>FF [EF]<[EF][EF] | %11
w: ||||
 [DB]<[DB][FB] [Fc]3 | [Fd]>[Fd][Fd] [Fd][Ge][Fd] | [Fc][FB][Fc] [Fd] [FB]2 | %14
w: |||
 [Gc]>[GB][EG] [EG]<[DF][B,D] | [CF][CG][EA] [DB]3 |] %16
w: ||
V:2
 x6 | x6 | x6 | FF[=EG] F2 _E | x6 | x6 | x6 | x6 | x6 | x6 | x6 | x6 | x6 | x6 | x6 | x6 |] %16
V:3
 [B,,B,]>[B,,B,][B,,B,] [F,A,][F,B,][F,C] | [B,,B,]>[B,,F,][B,,F,] [B,,F,] [B,,B,]2 | %2
 [E,B,]>[E,B,][E,B,] [E,G,][E,G,][E,B,] | [C,A,][C,A,][C,B,] [F,C]3 | %4
 [B,,B,]>[B,,B,][B,,B,] [B,,B,][B,,B,][B,,B,] | [F,A,][D,B,][F,A,] B, [B,D]2 | %6
 [E,E]>[E,E][E,B,] [B,,B,]<[B,,B,][B,,F,] | [F,A,][F,B,][F,C] [B,,B,]3 | %8
 [B,,B,]>[B,,B,][B,,B,] [B,,F,]3 | [E,G,]>[E,^F,][E,G,] [E,B,]3 | %10
 [D,B,]>[D,B,][D,B,] [C,A,]<[C,A,][C,A,] | [B,,F,]<[B,,F,][D,B,] [F,A,]3 | %12
 B,>B,B, [B,,B,][B,,B,][B,,B,] | [F,A,][D,B,][F,A,] B, [B,D]2 | %14
 [E,E]>[E,E][E,B,] [B,,B,]<[B,,B,][B,,F,] | [F,A,][F,B,][F,C] [B,,B,]3 |] %16

